packages/ndla-icons/svg/editor/Heading1.svg

<svg xmlns="http://www.w3.org/2000/svg" data-license="CC-BY 4.0" data-name="Layer 1" data-source="Knowit" viewBox="0 0 20 13.1">
  <path d="M0 0h1.7v5.5h6.1V0h1.6v13.1H7.8V7H1.7v6.1H0Zm12.8 11.8h2.9V2.4h-2.3V1.3a7.7 7.7 0 0 0 2.7-.9h1.3v11.4H20v1.3h-7.2Z"/>
</svg>

<svg id="Layer_1" data-name="Layer 1" xmlns="http://www.w3.org/2000/svg" viewBox="0 0 20 13.1"
  data-license="CC-BY 4.0"
  data-source="Knowit"
  width="22"
  height="15">
  <path d="M0,0H1.7V5.5H7.8V0H9.4V13.1H7.8V7H1.7v6.1H0Z"/>
  <path d="M12.8,11.8h2.9V2.4H13.4V1.3A7.7,7.7,0,0,0,16.1.4h1.3V11.8H20v1.3H12.8Z"/></svg>
